X:120
T: DER SCHOENE SCHAEFER ZOG SO NAH VORUEBER
N: B0151
O: Europa, Mitteleuropa, Deutschland
R: Ballade, Romanze
M: 3/4
L: 1/16
K: C
G,2 | E,3F,A,2G,2C2B,A, | A,4G,4z2
G,2 | G,3CC2E2D2C2 | B,8z2
B,2 | D3DD2CB,A,2C2 | C4B,2
D2D2F2 | E8D4 | C8z2

